X:210
T:Along the Ocean Shore
O:england
B:Joyce, P. W.; "Old Irish Folk Music and Songs"
R:tune
L:1/8
M:C
K:F
"Slow and Tender"\
FG|A2 AG FGAB|c4 A2 fe|d2 cA GAGF|D4 C2 FG|
A2 AG FGAB|c4 d2 fe|dcAG AGFE|F6||de|
f2 ed dfed|e3 c A2 de|d2 cA cdeg|f6 FG|
A2 AG FGAB|c4 d2 fe|dedc AGFE|F6||


